assets/Images/other/AdobeStock_125925095.xmp
<x:xmpmeta xmlns:x="adobe:ns:meta/" x:xmptk="Adobe XMP Core 7.0-c000 1.000000, 0000/00/00-00:00:00        ">
 <rdf:RDF xmlns:rdf="http://www.w3.org/1999/02/22-rdf-syntax-ns#">
  <rdf:Description rdf:about=""
    xmlns:aux="http://ns.adobe.com/exif/1.0/aux/"
    xmlns:dc="http://purl.org/dc/elements/1.1/"
    xmlns:exif="http://ns.adobe.com/exif/1.0/"
    xmlns:tiff="http://ns.adobe.com/tiff/1.0/"
    xmlns:xmp="http://ns.adobe.com/xap/1.0/"
    xmlns:xmpMM="http://ns.adobe.com/xap/1.0/mm/"
    xmlns:stRef="http://ns.adobe.com/xap/1.0/sType/ResourceRef#"
    xmlns:stEvt="http://ns.adobe.com/xap/1.0/sType/ResourceEvent#"
    xmlns:photoshop="http://ns.adobe.com/photoshop/1.0/"
    xmlns:pur="http://prismstandard.org/namespaces/prismusagerights/2.1/"
    xmlns:crs="http://ns.adobe.com/camera-raw-settings/1.0/"
   aux:ApproximateFocusDistance="2147483647/1"
   aux:DistortionCorrectionAlreadyApplied="True"
   aux:IsMergedHDR="True"
   aux:LateralChromaticAberrationCorrectionAlreadyApplied="True"
   aux:Lens="24.0-70.0 mm f/2.8"
   aux:LensID="147"
   aux:VignetteCorrectionAlreadyApplied="True"
   aux:SerialNumber="8504978"
   aux:LensInfo="24/1 70/1 14/5 14/5"
   aux:ImageNumber="99534"
   dc:format="image/jpeg"
   exif:ExifVersion="0230"
   exif:ExposureTime="6/1"
   exif:ShutterSpeedValue="-2584963/1000000"
   exif:FNumber="16/1"
   exif:ApertureValue="8/1"
   exif:ExposureProgram="3"
   exif:SensitivityType="2"
   exif:ExposureBiasValue="-2/3"
   exif:MaxApertureValue="24361/8200"
   exif:MeteringMode="5"
   exif:LightSource="0"
   exif:FocalLength="70/1"
   exif:SensingMethod="2"
   exif:FileSource="3"
   exif:SceneType="1"
   exif:FocalLengthIn35mmFilm="70"
   exif:CustomRendered="0"
   exif:ExposureMode="0"
   exif:WhiteBalance="0"
   exif:SceneCaptureType="1"
   exif:GainControl="0"
   exif:Contrast="0"
   exif:Saturation="0"
   exif:Sharpness="2"
   exif:SubjectDistanceRange="0"
   exif:DigitalZoomRatio="1/1"
   exif:FocalPlaneXResolution="366664/179"
   exif:FocalPlaneYResolution="366664/179"
   exif:FocalPlaneResolutionUnit="3"
   exif:DateTimeOriginal="2016-11-05T18:06:52.98"
   tiff:Make="NIKON CORPORATION"
   tiff:Model="NIKON D810"
   tiff:Orientation="1"
   xmp:CreatorTool="NIKON D810 Ver.1.10     "
   xmp:MetadataDate="2026-03-26T11:37:34+05:30"
   xmp:Rating="0"
   xmp:ModifyDate="2016-11-05T21:34:28"
   xmp:CreateDate="2016-11-05T18:06:52"
   xmpMM:DocumentID="adobe:docid:photoshop:2f2e897b-e3f3-1179-9a33-9817613f340f"
   xmpMM:InstanceID="xmp.iid:1004be01-9b70-d84f-b959-5da5a4ff2089"
   xmpMM:OriginalDocumentID="E375A7FCC7DDFF42A90073CDDE8143AC"
   photoshop:LegacyIPTCDigest="87CD151D398C2E5F063AC1881A5270E7"
   photoshop:DateCreated="2016-11-05T18:06:30Z"
   photoshop:Country="Thailand"
   photoshop:Credit="Sasint - stock.adobe.com"
   photoshop:Source="125925095"
   photoshop:SidecarForExtension="JPEG"
   photoshop:EmbeddedXMPDigest="5B5CA432743A229E7817AAB691908649"
   crs:Version="18.1.1"
   crs:ProcessVersion="6.7"
   crs:WhiteBalance="Custom"
   crs:IncrementalTemperature="0"
   crs:IncrementalTint="0"
   crs:Exposure2012="0.00"
   crs:Contrast2012="0"
   crs:Highlights2012="-13"
   crs:Shadows2012="0"
   crs:Whites2012="0"
   crs:Blacks2012="0"
   crs:Texture="0"
   crs:Clarity2012="0"
   crs:Dehaze="0"
   crs:Vibrance="0"
   crs:Saturation="0"
   crs:ParametricShadows="0"
   crs:ParametricDarks="0"
   crs:ParametricLights="0"
   crs:ParametricHighlights="0"
   crs:ParametricShadowSplit="25"
   crs:ParametricMidtoneSplit="50"
   crs:ParametricHighlightSplit="75"
   crs:Sharpness="0"
   crs:LuminanceSmoothing="0"
   crs:ColorNoiseReduction="0"
   crs:HueAdjustmentRed="0"
   crs:HueAdjustmentOrange="0"
   crs:HueAdjustmentYellow="0"
   crs:HueAdjustmentGreen="0"
   crs:HueAdjustmentAqua="0"
   crs:HueAdjustmentBlue="0"
   crs:HueAdjustmentPurple="0"
   crs:HueAdjustmentMagenta="0"
   crs:SaturationAdjustmentRed="0"
   crs:SaturationAdjustmentOrange="0"
   crs:SaturationAdjustmentYellow="0"
   crs:SaturationAdjustmentGreen="0"
   crs:SaturationAdjustmentAqua="0"
   crs:SaturationAdjustmentBlue="0"
   crs:SaturationAdjustmentPurple="0"
   crs:SaturationAdjustmentMagenta="0"
   crs:LuminanceAdjustmentRed="0"
   crs:LuminanceAdjustmentOrange="0"
   crs:LuminanceAdjustmentYellow="0"
   crs:LuminanceAdjustmentGreen="0"
   crs:LuminanceAdjustmentAqua="0"
   crs:LuminanceAdjustmentBlue="0"
   crs:LuminanceAdjustmentPurple="0"
   crs:LuminanceAdjustmentMagenta="0"
   crs:SplitToningShadowHue="0"
   crs:SplitToningShadowSaturation="0"
   crs:SplitToningHighlightHue="0"
   crs:SplitToningHighlightSaturation="0"
   crs:SplitToningBalance="0"
   crs:ColorGradeMidtoneHue="0"
   crs:ColorGradeMidtoneSat="0"
   crs:ColorGradeShadowLum="0"
   crs:ColorGradeMidtoneLum="0"
   crs:ColorGradeHighlightLum="0"
   crs:ColorGradeBlending="50"
   crs:ColorGradeGlobalHue="0"
   crs:ColorGradeGlobalSat="0"
   crs:ColorGradeGlobalLum="0"
   crs:AutoLateralCA="0"
   crs:LensProfileEnable="0"
   crs:LensManualDistortionAmount="0"
   crs:VignetteAmount="0"
   crs:DefringePurpleAmount="0"
   crs:DefringePurpleHueLo="30"
   crs:DefringePurpleHueHi="70"
   crs:DefringeGreenAmount="0"
   crs:DefringeGreenHueLo="40"
   crs:DefringeGreenHueHi="60"
   crs:PerspectiveUpright="0"
   crs:PerspectiveVertical="0"
   crs:PerspectiveHorizontal="0"
   crs:PerspectiveRotate="0.0"
   crs:PerspectiveAspect="0"
   crs:PerspectiveScale="100"
   crs:PerspectiveX="0.00"
   crs:PerspectiveY="0.00"
   crs:GrainAmount="0"
   crs:PostCropVignetteAmount="0"
   crs:ShadowTint="0"
   crs:RedHue="0"
   crs:RedSaturation="0"
   crs:GreenHue="0"
   crs:GreenSaturation="0"
   crs:BlueHue="0"
   crs:BlueSaturation="0"
   crs:HDREditMode="0"
   crs:ConvertToGrayscale="False"
   crs:OverrideLookVignette="False"
   crs:ToneCurveName2012="Linear"
   crs:CameraProfile="Embedded"
   crs:CameraProfileDigest="54650A341B5B5CCAE8442D0B43A92BCE"
   crs:HasSettings="True"
   crs:HasCrop="False"
   crs:AlreadyApplied="False">
   <dc:creator>
    <rdf:Seq>
     <rdf:li>Sasin TIPCHAI</rdf:li>
    </rdf:Seq>
   </dc:creator>
   <dc:description>
    <rdf:Alt>
     <rdf:li xml:lang="x-default">Paradise. Vacations And Tourism Concept. Tropical Resort. Jetty on Koh Mak Island, Trad,Thailand</rdf:li>
    </rdf:Alt>
   </dc:description>
   <dc:rights>
    <rdf:Alt>
     <rdf:li xml:lang="x-default">Sasin TIPCHAI</rdf:li>
    </rdf:Alt>
   </dc:rights>
   <dc:subject>
    <rdf:Bag>
     <rdf:li>beach</rdf:li>
     <rdf:li>beautiful</rdf:li>
     <rdf:li>beauty</rdf:li>
     <rdf:li>blue</rdf:li>
     <rdf:li>bungalow</rdf:li>
     <rdf:li>cancun</rdf:li>
     <rdf:li>caribbean</rdf:li>
     <rdf:li>clear</rdf:li>
     <rdf:li>concept</rdf:li>
     <rdf:li>destination</rdf:li>
     <rdf:li>dock</rdf:li>
     <rdf:li>dream</rdf:li>
     <rdf:li>exotic</rdf:li>
     <rdf:li>horizon</rdf:li>
     <rdf:li>hotel</rdf:li>
     <rdf:li>Koh Mak</rdf:li>
     <rdf:li>island</rdf:li>
     <rdf:li>jetty</rdf:li>
     <rdf:li>landscape</rdf:li>
     <rdf:li>leisure</rdf:li>
     <rdf:li>lifestyles</rdf:li>
     <rdf:li>luxurious</rdf:li>
     <rdf:li>luxury</rdf:li>
     <rdf:li>Thailand</rdf:li>
     <rdf:li>Trad</rdf:li>
     <rdf:li>nature</rdf:li>
     <rdf:li>ocean</rdf:li>
     <rdf:li>outdoor</rdf:li>
     <rdf:li>paradise</rdf:li>
     <rdf:li>path</rdf:li>
     <rdf:li>pier</rdf:li>
     <rdf:li>resort</rdf:li>
     <rdf:li>sea</rdf:li>
     <rdf:li>sky</rdf:li>
     <rdf:li>summer</rdf:li>
     <rdf:li>sun</rdf:li>
     <rdf:li>tourism</rdf:li>
     <rdf:li>tranquil</rdf:li>
     <rdf:li>travel</rdf:li>
     <rdf:li>tropic</rdf:li>
     <rdf:li>tropical</rdf:li>
     <rdf:li>turquoise</rdf:li>
     <rdf:li>vacation</rdf:li>
     <rdf:li>view</rdf:li>
     <rdf:li>villa</rdf:li>
     <rdf:li>water</rdf:li>
     <rdf:li>white</rdf:li>
     <rdf:li>yacht</rdf:li>
     <rdf:li>relax</rdf:li>
    </rdf:Bag>
   </dc:subject>
   <dc:title>
    <rdf:Alt>
     <rdf:li xml:lang="x-default">Paradise. Vacations And Tourism Concept. Tropical Resort. Jetty on Koh Mak Island, Trad,Thailand</rdf:li>
    </rdf:Alt>
   </dc:title>
   <exif:Flash
    exif:Fired="False"
    exif:Function="False"
    exif:Mode="2"
    exif:RedEyeMode="False"
    exif:Return="0"/>
   <exif:ISOSpeedRatings>
    <rdf:Seq>
     <rdf:li>100</rdf:li>
    </rdf:Seq>
   </exif:ISOSpeedRatings>
   <exif:UserComment>
    <rdf:Alt>
     <rdf:li xml:lang="x-default">sarakham model</rdf:li>
    </rdf:Alt>
   </exif:UserComment>
   <tiff:YCbCrSubSampling>
    <rdf:Seq>
     <rdf:li>1</rdf:li>
     <rdf:li>1</rdf:li>
    </rdf:Seq>
   </tiff:YCbCrSubSampling>
   <xmpMM:DerivedFrom
    stRef:documentID="xmp.did:f6379d95-a310-4ed1-8937-25ba81df4abc"
    stRef:instanceID="xmp.iid:189f55f9-1b16-4bbd-8167-9ca8c229607b"
    stRef:originalDocumentID="E375A7FCC7DDFF42A90073CDDE8143AC"/>
   <xmpMM:History>
    <rdf:Seq>
     <rdf:li
      stEvt:action="saved"
      stEvt:instanceID="xmp.iid:cd248b00-5622-9840-bb93-d7b9467a8d55"
      stEvt:when="2025-12-09T12:15:21+05:30"
      stEvt:softwareAgent="Adobe Photoshop Camera Raw 17.2 (Windows)"
      stEvt:changed="/metadata"/>
     <rdf:li
      stEvt:action="saved"
      stEvt:instanceID="xmp.iid:1004be01-9b70-d84f-b959-5da5a4ff2089"
      stEvt:when="2026-03-26T11:37:34+05:30"
      stEvt:softwareAgent="Adobe Photoshop Camera Raw 18.1.1 (Windows)"
      stEvt:changed="/metadata"/>
    </rdf:Seq>
   </xmpMM:History>
   <pur:creditLine>
    <rdf:Bag>
     <rdf:li>Sasint - stock.adobe.com</rdf:li>
    </rdf:Bag>
   </pur:creditLine>
   <crs:ToneCurvePV2012>
    <rdf:Seq>
     <rdf:li>0, 0</rdf:li>
     <rdf:li>255, 255</rdf:li>
    </rdf:Seq>
   </crs:ToneCurvePV2012>
   <crs:ToneCurvePV2012Red>
    <rdf:Seq>
     <rdf:li>0, 0</rdf:li>
     <rdf:li>255, 255</rdf:li>
    </rdf:Seq>
   </crs:ToneCurvePV2012Red>
   <crs:ToneCurvePV2012Green>
    <rdf:Seq>
     <rdf:li>0, 0</rdf:li>
     <rdf:li>255, 255</rdf:li>
    </rdf:Seq>
   </crs:ToneCurvePV2012Green>
   <crs:ToneCurvePV2012Blue>
    <rdf:Seq>
     <rdf:li>0, 0</rdf:li>
     <rdf:li>255, 255</rdf:li>
    </rdf:Seq>
   </crs:ToneCurvePV2012Blue>
   <crs:PointColors>
    <rdf:Seq>
     <rdf:li>-1.000000, -1.000000, -1.000000, -1.000000, -1.000000, -1.000000, -1.000000, -1.000000, -1.000000, -1.000000, -1.000000, -1.000000, -1.000000, -1.000000, -1.000000, -1.000000, -1.000000, -1.000000, -1.000000</rdf:li>
    </rdf:Seq>
   </crs:PointColors>
   <crs:ColorVariance>
    <rdf:Seq>
     <rdf:li>-50.000000</rdf:li>
    </rdf:Seq>
   </crs:ColorVariance>
  </rdf:Description>
 </rdf:RDF>
</x:xmpmeta>
